icons/shield-outline.svg

<svg xmlns="http://www.w3.org/2000/svg" width="24" height="24" viewBox="0 0 24 24">
    <path fill="#3A3A47" fill-rule="evenodd" d="M12 2c.299 0 .598.07.896.21l6 3.008c.335.162.608.413.817.755.313.511.287 1.035.287 1.035V12c0 2.23-1.532 4.892-3.003 6.343-.807.795-2.105 2.164-3.897 3.337 0 0-.513.32-1.1.32-.587 0-1.082-.314-1.082-.314-1.804-1.189-3.11-2.56-3.917-3.343C5.502 16.889 4 14.253 4 12V6.997c.002-.074.025-.57.323-1.024.215-.329.475-.58.78-.755l6-3.007c.3-.14.598-.211.897-.211zm0 2c-.224 0-2.224 1-6 3v5c0 2 1.127 3.911 2.25 5.074C8.857 17.701 11.56 20 12 20c.44 0 3.143-2.29 3.748-2.926C16.85 15.914 18 14 18 12V7c-3.776-2-5.776-3-6-3z"/>
</svg>

<svg width="24" height="24" viewBox="0 0 24 24" fill="none" xmlns="http://www.w3.org/2000/svg">
<path fill-rule="evenodd" clip-rule="evenodd" d="M12 22C11.413 22 10.918 21.686 10.918 21.686C9.114 20.497 7.808 19.126 7.001 18.343C5.502 16.889 4 14.253 4 12V7.006C4 7.006 4 6.465 4.323 5.973C4.538 5.644 4.798 5.393 5.103 5.218L11.103 2.211C11.403 2.071 11.701 2 12 2C12.299 2 12.598 2.07 12.896 2.21L18.896 5.218C19.231 5.38 19.504 5.631 19.713 5.973C20.026 6.484 20 7.008 20 7.008V12C20 14.23 18.468 16.892 16.997 18.343C16.19 19.138 14.892 20.507 13.1 21.68C13.1 21.68 12.587 22 12 22ZM12 20C12.44 20 15.143 17.71 15.748 17.074C16.85 15.914 18 14 18 12V7C14.224 5 12.224 4 12 4C11.776 4 9.776 5 6 7V12C6 14 7.127 15.911 8.25 17.074C8.857 17.701 11.56 20 12 20Z" fill="#3A3A47"/>
</svg>
